X: 10452
M: 2/4
L: 1/16
K: Bb
|: f2 |\
fbfd BdBF | EDEF GFED | C2 gf edcB | ABcA F2 (3(fga) |\
bfdf gece | dfBd cA F2 | fgfe dcBA | B2B2B2 :|


